images/keyses.svg

<svg width="28" height="28" viewBox="0 0 28 28" fill="none" xmlns="http://www.w3.org/2000/svg">
<path d="M26.4056 21.1437C25.8241 20.7344 25.1529 20.5146 24.475 20.4787C21.92 18.8056 20.2463 17.5498 19.2692 16.5726L16.2675 13.571L18.089 11.532C18.4342 11.7269 18.805 11.8553 19.1759 11.9083C19.4557 11.9549 19.6423 11.9549 19.8289 11.9549C20.2021 11.9549 20.2953 11.9549 20.6685 12.2814C20.4819 12.4213 20.3886 12.6545 20.3886 12.8877C20.3886 13.1209 20.4819 13.4008 20.6685 13.5874L22.301 15.2199C22.5342 15.4998 22.9073 15.6397 23.2805 15.6397C23.6537 15.6397 24.0268 15.4998 24.26 15.1733L27.5717 11.8616C27.8516 11.6283 27.9915 11.2552 27.9915 10.8821C27.9915 10.5089 27.8516 10.1824 27.5717 9.90257L25.9392 8.27003C25.7526 8.08348 25.5194 7.99018 25.2861 7.99018C25.0529 7.99018 24.8197 8.13011 24.6331 8.27003C24.26 7.94355 24.26 7.85024 24.26 7.47708C24.26 7.29053 24.26 7.05729 24.1667 6.77743C24.0734 6.12441 23.7469 5.47144 23.2338 4.95835L21.5546 3.27919C20.5751 2.29968 20.1087 1.83327 18.8493 1.27355C16.144 0.0141792 13.3921 0.247414 9.38073 2.0665C9.1475 2.15981 9.05424 2.34636 9.10087 2.57959C9.1475 2.81283 9.3341 2.95276 9.56728 2.95276H10.1736C12.2259 2.95276 13.2987 2.95276 15.1645 4.81847C15.9814 5.63542 16.005 6.88806 15.273 7.80969C15.1744 7.82455 15.0993 7.86883 15.0245 7.94355L12.9526 10.2561L11.3864 8.68988C9.66491 6.96841 8.45408 5.33971 7.52218 3.52614C7.47326 2.60846 7.10501 1.74985 6.44221 1.08705C5.64931 0.294148 4.52987 -0.0790161 3.41043 0.0142886C3.2705 0.0609136 3.13057 0.154218 3.08395 0.247523C2.99064 0.387453 2.99064 0.574008 3.08395 0.713937L4.38994 3.04612C4.11008 3.65246 3.45706 4.02563 2.80409 3.979L1.45142 1.74007C1.40479 1.60014 1.21818 1.50684 1.07825 1.50684C0.938322 1.46021 0.798392 1.55346 0.705087 1.69339C-0.414351 3.37255 0.00543853 5.61142 1.6846 6.77749C2.26312 7.19072 2.91488 7.42051 3.57496 7.46763C3.58234 7.47074 3.58928 7.47457 3.59693 7.47714C5.41602 8.41002 7.04855 9.62271 8.77433 11.3485L10.4802 13.0156L0.565212 24.0822C0.192048 24.4554 0.00549316 24.9684 0.00549316 25.4815C0.00549316 25.9946 0.192048 26.461 0.565212 26.8342L1.21824 27.4872C1.5914 27.8137 2.05781 28.0003 2.52423 28.0003C2.99064 28.0003 3.50374 27.8137 3.8769 27.4406L13.7806 16.3548L16.6571 19.2313C17.6357 20.2099 18.8937 21.9335 20.5705 24.4483C20.6306 25.346 20.998 26.1842 21.648 26.8342C22.3476 27.5338 23.2805 27.907 24.26 27.907C24.3999 27.907 24.5399 27.907 24.6332 27.907C24.7731 27.907 24.913 27.8137 25.0063 27.6738C25.0996 27.5338 25.0996 27.3473 25.0063 27.2073L23.6537 24.9218C23.9802 24.3155 24.5866 23.9423 25.2862 23.989L26.5922 26.2278C26.6388 26.3678 26.8254 26.4611 26.9654 26.4611C27.1519 26.4144 27.2918 26.3678 27.3851 26.2278C28.5045 24.5486 28.0381 22.3097 26.4056 21.1437ZM15.7709 4.07225C14.2783 2.62633 13.1589 2.15986 11.8995 2.01993C14.5582 1.18035 16.5172 1.22698 18.4762 2.11323C19.5957 2.57965 19.9688 2.95281 20.9483 3.93232L22.6275 5.61148C23.0006 5.98464 23.2338 6.45106 23.2805 6.91747C23.3271 7.15071 23.3271 7.33726 23.3271 7.47719C23.3271 7.99028 23.3738 8.36339 23.9335 8.92311C24.12 9.10967 24.3999 9.20297 24.6331 9.20297C24.913 9.20297 25.1462 9.10967 25.2861 8.92311L26.9187 10.5556C27.012 10.6489 27.0586 10.7422 27.0586 10.8821C27.0586 11.0221 27.012 11.1154 26.9187 11.2086L23.607 14.5203C23.4204 14.7069 23.1406 14.7069 22.954 14.5203L21.3214 12.8878C21.508 12.7478 21.6013 12.5146 21.5547 12.2347C21.5547 12.0015 21.4614 11.7217 21.2748 11.5351C20.7151 10.9754 20.3419 10.9288 19.8289 10.9288C19.689 10.9288 19.5024 10.9288 19.2692 10.8821C18.7561 10.8355 18.3363 10.6023 17.9632 10.2291L15.9575 8.22346C16.9836 6.96415 16.8904 5.19169 15.7709 4.07225ZM1.12493 2.95281L2.10444 4.63197C2.19774 4.7719 2.33767 4.8652 2.4776 4.8652H2.71084C3.78365 4.91183 4.76316 4.35211 5.22957 3.41928L5.32288 3.18605C5.41618 3.04612 5.41618 2.90619 5.32288 2.76626L4.29669 0.993797C4.85641 1.0871 5.3695 1.36696 5.78929 1.78675C6.27019 2.30772 6.57809 2.96659 6.59629 3.67433C6.58727 3.71024 6.58219 3.74888 6.58219 3.79245C6.58219 4.00846 6.55612 4.21918 6.50785 4.42229C6.3319 5.09767 5.90998 5.68653 5.32282 6.078C4.38994 6.68435 3.13057 6.68435 2.19774 6.03138C1.21824 5.33162 0.798446 4.07225 1.12493 2.95281ZM9.42741 10.6956C8.02811 9.24965 6.62882 8.13021 5.13621 7.24396C5.36945 7.15065 5.64931 7.01072 5.88249 6.87079C6.58214 6.40438 7.04855 5.79798 7.32841 5.0517C8.21461 6.54431 9.33405 7.9436 10.7333 9.3429L12.3354 10.945L11.0791 12.3473L9.42741 10.6956ZM3.22388 26.7409C2.85071 27.114 2.24437 27.1607 1.8712 26.7875L1.21818 26.1812C1.03163 25.9946 0.938322 25.7614 0.938322 25.5281C0.938322 25.2483 1.03163 25.015 1.26481 24.7819L1.52898 24.4863L2.19769 25.155C2.29099 25.2483 2.38424 25.2949 2.52417 25.2949C2.6641 25.2949 2.75741 25.2483 2.85066 25.155C3.03721 24.9685 3.03721 24.6886 2.85066 24.502L2.14532 23.7967L2.76173 23.107L3.50368 23.849C3.59699 23.9423 3.69024 23.9889 3.83017 23.9889C3.9701 23.9889 4.0634 23.9423 4.15665 23.849C4.34321 23.6624 4.34321 23.3826 4.15665 23.1959L3.37818 22.4174L15.3757 8.99439L17.3348 10.9534L15.4099 13.107C15.3549 13.1302 15.3063 13.1658 15.2578 13.2143L13.3921 15.3133C13.3388 15.3665 13.3013 15.4276 13.2785 15.4917L3.22388 26.7409ZM14.4188 15.6403L15.6953 14.2115L18.7094 17.2256C19.549 18.1119 20.9949 19.2313 23.0938 20.6306C22.814 20.7239 22.5341 20.8638 22.2543 21.0504C21.6756 21.4121 21.2657 21.9142 20.9801 22.4694C20.9759 22.4773 20.972 22.4854 20.9679 22.4933C20.951 22.5267 20.9344 22.5603 20.9184 22.5941C20.8954 22.6419 20.8735 22.6903 20.8526 22.7392C20.8382 22.7722 20.824 22.8053 20.8105 22.8386C20.8086 22.8434 20.8067 22.8482 20.8048 22.853C20.7901 22.8895 20.7755 22.926 20.7617 22.9628C20.4968 22.5742 20.2419 22.2075 19.9967 21.862L20.6218 21.237C20.8083 21.0504 20.8083 20.7706 20.6218 20.584C20.4352 20.3974 20.1554 20.3974 19.9688 20.584L19.4488 21.1039C19.255 20.8409 19.0677 20.5928 18.8872 20.3596L19.3158 19.9309C19.5023 19.7444 19.5023 19.4645 19.3158 19.2779C19.1292 19.0914 18.8494 19.0914 18.6628 19.2779L18.3067 19.634C17.9639 19.2208 17.6477 18.8692 17.3568 18.5783L14.4188 15.6403ZM26.9186 24.9684L25.9391 23.2893C25.8458 23.1493 25.7059 23.056 25.566 23.056H25.3327C24.2599 22.9627 23.2804 23.5691 22.814 24.5019L22.7207 24.7352C22.6274 24.8751 22.6274 25.015 22.7207 25.155L23.7468 26.9274C23.1871 26.8341 22.674 26.5543 22.2542 26.1345C21.7824 25.6233 21.4775 24.9795 21.4488 24.2871C21.4568 24.253 21.4613 24.2164 21.4613 24.1755C21.4613 23.5846 21.6488 23.0314 21.9758 22.5628C22.1766 22.2832 22.4279 22.0385 22.7206 21.8433C23.187 21.5168 23.7001 21.3769 24.2599 21.3769C24.8196 21.3769 25.3793 21.5635 25.8457 21.89C26.8254 22.5896 27.2452 23.849 26.9186 24.9684Z" fill="#E3B873"/>
</svg>

<svg width="28" height="28" fill="none" xmlns="http://www.w3.org/2000/svg">
  <path d="M26.406 21.144a3.687 3.687 0 0 0-1.931-.665c-2.555-1.673-4.229-2.93-5.206-3.906l-3.002-3.002 1.822-2.039a3.12 3.12 0 0 0 1.087.376c.28.047.466.047.653.047.373 0 .466 0 .84.326a.752.752 0 0 0-.28.607c0 .233.093.513.28.7L22.3 15.22c.233.28.606.42.98.42.373 0 .746-.14.979-.467l3.312-3.311c.28-.234.42-.607.42-.98s-.14-.7-.42-.98L25.939 8.27a.921.921 0 0 0-.653-.28c-.233 0-.466.14-.653.28-.373-.326-.373-.42-.373-.793 0-.186 0-.42-.093-.7a3.265 3.265 0 0 0-.933-1.819l-1.68-1.679c-.979-.98-1.445-1.446-2.705-2.005-2.705-1.26-5.457-1.027-9.468.792-.233.094-.327.28-.28.514a.454.454 0 0 0 .466.373h.607c2.052 0 3.125 0 4.99 1.865.817.817.841 2.07.109 2.992a.427.427 0 0 0-.248.134l-2.072 2.312-1.567-1.566C9.665 6.968 8.454 5.34 7.522 3.526a3.694 3.694 0 0 0-1.08-2.439C5.65.294 4.53-.079 3.41.014c-.14.047-.28.14-.326.234a.424.424 0 0 0 0 .466L4.39 3.046c-.28.606-.933.98-1.586.933L1.451 1.74c-.046-.14-.233-.233-.373-.233-.14-.047-.28.046-.373.186a3.674 3.674 0 0 0 .98 5.084c.578.414 1.23.644 1.89.69.007.004.014.008.022.01 1.819.933 3.452 2.146 5.177 3.871l1.706 1.668L.565 24.082c-.373.373-.56.886-.56 1.4 0 .513.187.979.56 1.352l.653.653c.373.327.84.513 1.306.513.467 0 .98-.186 1.353-.56l9.904-11.085 2.876 2.876c.979.979 2.237 2.702 3.913 5.217.06.898.428 1.736 1.078 2.386.7.7 1.633 1.073 2.612 1.073h.373c.14 0 .28-.093.373-.233a.424.424 0 0 0 0-.467l-1.352-2.285c.326-.607.933-.98 1.632-.933l1.306 2.239c.047.14.233.233.373.233.187-.047.327-.093.42-.233 1.12-1.68.653-3.918-.98-5.084ZM15.77 4.072c-1.493-1.446-2.612-1.912-3.872-2.052 2.66-.84 4.618-.793 6.577.093 1.12.467 1.493.84 2.472 1.82l1.68 1.678c.373.374.606.84.652 1.306.047.234.047.42.047.56 0 .513.047.886.606 1.446.187.187.467.28.7.28.28 0 .513-.093.653-.28l1.633 1.633c.093.093.14.186.14.326s-.047.233-.14.327l-3.312 3.311a.45.45 0 0 1-.653 0l-1.633-1.632c.187-.14.28-.373.234-.653 0-.233-.094-.513-.28-.7-.56-.56-.933-.606-1.446-.606-.14 0-.327 0-.56-.047-.513-.046-.933-.28-1.306-.653l-2.006-2.006c1.027-1.259.933-3.031-.186-4.15ZM1.125 2.952l.98 1.68c.093.14.233.233.373.233h.233c1.073.047 2.052-.513 2.519-1.446l.093-.233a.35.35 0 0 0 0-.42L4.297.994c.56.093 1.073.373 1.492.793.481.52.79 1.18.807 1.887a.48.48 0 0 0-.014.118c0 .216-.026.427-.074.63a2.86 2.86 0 0 1-1.185 1.656 2.822 2.822 0 0 1-3.125-.047 2.84 2.84 0 0 1-1.073-3.078Zm8.302 7.744C8.028 9.25 6.63 8.13 5.137 7.244c.232-.093.512-.233.745-.373a3.674 3.674 0 0 0 1.446-1.82c.887 1.493 2.006 2.893 3.405 4.292l1.602 1.602-1.256 1.402-1.652-1.651ZM3.224 26.74c-.373.373-.98.42-1.353.047l-.653-.607a.921.921 0 0 1-.28-.653c0-.28.094-.513.327-.746l.264-.296.669.669c.093.093.186.14.326.14s.233-.047.327-.14a.45.45 0 0 0 0-.653l-.706-.705.617-.69.742.742c.093.093.186.14.326.14s.233-.047.327-.14a.451.451 0 0 0 0-.653l-.779-.779L15.376 8.994l1.959 1.96-1.925 2.153a.477.477 0 0 0-.152.107l-1.866 2.1a.478.478 0 0 0-.114.178L3.224 26.74Zm11.195-11.1 1.276-1.43 3.014 3.015c.84.886 2.286 2.005 4.385 3.405a3.53 3.53 0 0 0-.84.42c-.578.361-.988.863-1.274 1.418l-.012.024a4.271 4.271 0 0 0-.206.47c-.265-.389-.52-.756-.765-1.101l.625-.625a.451.451 0 0 0 0-.653.45.45 0 0 0-.653 0l-.52.52a39.5 39.5 0 0 0-.562-.744l.429-.43a.451.451 0 0 0 0-.652.451.451 0 0 0-.653 0l-.356.356a15.494 15.494 0 0 0-.95-1.056l-2.938-2.938Zm12.5 9.327-.98-1.679c-.093-.14-.233-.233-.373-.233h-.233c-1.073-.093-2.053.513-2.519 1.446l-.093.233a.35.35 0 0 0 0 .42l1.026 1.772a2.756 2.756 0 0 1-1.493-.793c-.472-.51-.777-1.154-.805-1.847a.484.484 0 0 0 .012-.111 2.804 2.804 0 0 1 1.26-2.333c.466-.326.98-.466 1.539-.466.56 0 1.12.187 1.586.513.98.7 1.4 1.959 1.073 3.078Z" fill="#E3B873"/>
</svg>
